X:1
T:Title
%%score { ( 1 3 4 ) | ( 2 5 ) }
L:1/8
M:4/4
K:Eb
V:1 treble nm="Grand Piano"
V:3 treble 
V:4 treble 
V:2 bass 
V:5 bass 
V:1
 z4 z2 z[Q:1/4=90] G | [EG]3 [EG] [EG][EG][EG][EG] | [GB]2 [FA]2 z2 z [FA] | %3
 [FA]3 [FA] [FA][FA][FA][FA] | [Ac]2 [GB]2 E,>B B>e | A4 [FA]4 | [EAc]2 .[EGB]2 z2 z [CFA] | %7
 [EG]4 z4[Q:1/4=89][Q:1/4=87][Q:1/4=86][Q:1/4=85][Q:1/4=83][Q:1/4=82][Q:1/4=81] | %8
[M:3/4] E2 E4[Q:1/4=79][Q:1/4=78][Q:1/4=77][Q:1/4=75][Q:1/4=74][Q:1/4=73][Q:1/4=71][Q:1/4=70][Q:1/4=69] |] %9
V:2
 z4 z2 z E | E,B,=A,B, CB,G,E, | B,,B,,B,,B,, B,,B,,B,,B,, | B,,B,A,B, DCB,B,, | %4
 E,E,E,E, z z/ [G,B,E]/ [G,B,E]>[G,B,E] | [F,B,]>F, F,[F,B,] D,2 z A | E,2 E,E, E,2 A,,A,, | %7
 z4 [B,,A,]4 |[M:3/4] [E,G,]6 |] %9
V:3
 x8 | x8 | x8 | x8 | x8 | d->[B,d-] [B,d]f B,2 z c | x8 | B,2 B,B, [DF]2 F2 |[M:3/4] x6 |] %9
V:4
 x8 | x8 | x8 | x8 | x8 | z4 z2 B,2 | x8 | x8 |[M:3/4] x6 |] %9
V:5
 x8 | x8 | x8 | x8 | x8 | z4 z2 D,2 | x8 | B,,2 B,,B,, z2 D2 |[M:3/4] x6 |] %9

